!!!!SEGMENT: pl-wtm--a-23-177_krupinski-wiktor--na-zgliszczach-te-pola-ktore-deptal.krn
!!!cenid: 19xx:42
!!!COM: Krupiński, Wiktor
!!!COM-rismID: pe50047127
!!!CDT: 1879-1951
!!!CNT: Polish
!!!OTL: Na zgliszczach/Te pola które deptał
!!!PDT:
!!!AGN: Secular
!!!YEC: Copyright 2022 Narodowy Instytut Fryderyka Chopina (https://polishscores.org)
!!!YEM: License CC-BY-4.0 (https://creativecommons.org/licenses/by/4.0)
!!!SMS-siglum: PL-Wtm
!!!SMS-shelfmark: A.23.177
!!!SMS-variant:
!!!SMS-altvar:
!!!SMS-shelfwork: W
!!!NIFC-rismSourceID: 1001212478
!!!NIFC-rismChildID: 1001212478
!!!NIFC-islandoraID: pl-wtm:32003
!!!URL-pdf-islandora: https://repozytorium.nifc.pl/islandora/object/pl-wtm%3A32003/datastream/PDF/view
!!!URL-scan: https://polish.musicsources.pl/pl/lokalizacje/galeria/druki-muzyczne/19839/3 @EN{Scan on Polish Music Sources Website} @PL{Skany w portalu Dziedzictwo Muzyki Polskiej w otwartym dostępie}
!!!IIIF:
!!!ONB-nifc:
!!!AIN: 2 piano 1 vox
!!!key: G
**kern	**kern	**dynam	**kern	**text	**text	**dynam
*part3	*part2	*part2	*part1	*part1	*part1	*part1
*staff3	*staff2	*	*staff1	*staff1	*staff1	*
*I"[Piano]	*I"[Piano]	*	*I"[Voce]	*	*	*
*I'[pf]	*I'[pf]	*	*I'[V]	*	*	*
*ICklav	*ICklav	*	*ICvox	*	*	*
*Ipiano	*Ipiano	*	*Ivox	*	*	*
*>[A,B,A1]	*>[A,B,A1]	*>[A,B,A1]	*>[A,B,A1]	*>[A,B,A1]	*>[A,A,B]	*>[A,A,B]
*>A	*>A	*>A	*>A	*>A	*>A	*>A
*clefF4	*clefG2	*	*clefG2	*	*	*
*k[f#]	*k[f#]	*	*k[f#]	*	*	*
*G:	*G:	*	*G:	*	*	*
*M4/4	*M4/4	*	*M4/4	*	*	*
=1	=1	=1	=1	=1	=1	=1
*^	*^	*	*	*	*	*
!	!	!	!	!	!LO:TX:a:B:t=Andante	!	!	!
4BBB/ 4BB	2.ryy	8r	2.ryy	f	1ryy	.	.	.
.	.	(8dd/L	.	.	.	.	.	.
4D\ 4G 4d	.	8b/	.	.	.	.	.	.
.	.	8g/J)	.	.	.	.	.	.
4CC#X/ 4C#X	.	8r	.	.	.	.	.	.
.	.	(>8dd#X/L	.	.	.	.	.	.
8f#/L	4C#\ 4G 4B-X	8ff#/	4g\ 4b-X	.	.	.	.	.
8e/J	.	8een/J)	.	.	.	.	.	.
*v	*v	*	*	*	*	*	*	*
=2	=2	=2	=2	=2	=2	=2	=2
4AAA/ 4AA	8g/L 8cc 8ee 8gg	4ryy	.	1ryy	.	.	.
.	8g/J 8cc 8ee	.	.	.	.	.	.
4DD/ 4D	8b/L	4c\ 4f#	.	.	.	.	.
.	8a/J	.	.	.	.	.	.
4GG\ 4G	4B/ 4g	2ryy	.	.	.	.	.
4GGG/ 4GG	4re	.	.	.	.	.	.
=3	=3	=3	=3	=3	=3	=3	=3
*^	*	*	*	*	*	*	*
*ped	*	*	*	*	*	*	*	*
4GG/	4ryy	8re	4ryy	p	8r	.	.	.
.	.	8b/	.	.	8b\	Te	Te	.
(>8c/L	[8D\L [>8G	(8a/L	4d\	.	8a/	po-	do-	.
8B/J)	8D\J] 8G]	8g/J)	.	.	8g/	-la	-my	.
8.E-X\L 8.A 8.c	2ryy	8.a/L	8.g\L	<	8.a/	któ-	któ-	.
16E-\Jk 16A 16c	.	16b/Jk	16g\Jk	.	16b/	-re	-re	.
4D\ 4A 4c	.	4cc^/	(8g\L	[	8cc\	dep-	bu-	.
.	.	.	8f#\J)	.	8f#/	-tał	-rzył	.
!!LO:LB:g=original	!	!	!	!	!	!	!	!
=4	=4	=4	=4	=4	=4	=4	=4	=4
4BBB/ 4BB	2ryy	8re	2ryy	.	8r	.	.	.
!	!	!	!	!LO:HP:t=molto cresc	!	!	!	!
.	.	8dd\	.	<	8dd\	i	mor-	.
4D\ 4G 4d	.	8b/L	.	.	8b/	o-	-der-	.
.	.	[8g/J	.	.	8g/	-gniem	-czym	.
4G/	8.C#X\L	8.ee-X/L	4g\] 4b-X	.	8.ee-X\	o-	o-	.
.	16Cn\Jk	16een/Jk	.	.	16een\	-rał	-gniem	.
8BBn\ 8Fn 8G#X 8d	4ryy	8fn\ 8dd 8ffn	4ryy	.	16ffn\	wróg	wróg	.
.	.	.	.	.	16r	.	.	.
8rGG	.	8re	.	.	8ee\	cha-	po-	.
*v	*v	*	*	*	*	*	*	*
=5	=5	=5	=5	=5	=5	=5	=5
!	!LO:TX:b:i:t=dolce	!	!	!	!	!	!
4AAA/ 4AA	4r	4ryy	.	4.gg\	-bra-	-wo-	.
2C\ 2E 2G	(4cc/ 4ee	2e\	.	.	.	.	.
.	.	.	.	8ee\	-mi	-li	.
.	4.b/ 4.dd	.	.	4.dd\	i	od	.
4ryy	.	4A\ 4c 4e	.	.	.	.	.
.	8a/) 8cc	.	.	8cc\	ru-	bu-	.
!!LO:LB:g=original	!	!	!	!	!	!	!
=6	=6	=6	=6	=6	=6	=6	=6
*^	*	*	*	*	*	*	*
4EE:\ 4BB: 4G:	2ryy	2e:\ 2b: 2gg:	2ryy	.	2gg\	-mian-	-do-	.
4E\ 4G 4B	.	.	.	.	.	.	.	.
2GG:/ 2E:	(4CC:\	2g/ 2b	(4e\	.	2b\	-kiem	-wać	.
.	4BBB\)	.	4d\)	.	.	.	.	.
*v	*v	*	*	*	*	*	*	*
=7	=7	=7	=7	=7	=7	=7	=7
2DD/ 2AA 2E	4a/	2c\ 2g	.	4a/	za-	po-	.
.	8b/L	.	.	8b\	-sie-	-mo-	.
.	8cc/J	.	.	8cc\	-je	-że	.
2D\ 2A 2c	4.dd/	2c\ 2d 2f#	.	4.dd\	z wio-	do-	.
.	8a/	.	.	8a/	-sną	-bry	.
=8	=8	=8	=8	=8	=8	=8	=8
2GG\ 2G	2b/	4r	.	2b\	Bóg.	Bóg.	.
.	.	4B\ 4d 4g	.	.	.	.	.
2FFn\ 2Fn	4rg	4ryy	.	4r	.	.	.
.	4b/	4B\ 4d 4g#X	.	4b\	Cha-	Po-	.
!!LO:LB:g=original	!	!	!	!	!	!	!
=9	=9	=9	=9	=9	=9	=9	=9
*^	*	*	*	*	*	*	*
4EE/ 4E	4ryy	4.ee/	2d\ 2e 2g	.	4.ee\	-bra-	-wo-	.
8c/L	4E\ 4G#X	.	.	.	.	.	.	.
8B/J	.	8dd/	.	.	8dd\	-mi	-li	.
(4e/	2E\	4.cc/	2g\	.	4.cc\	i	od-	.
4d/)	.	.	.	.	.	.	.	.
.	.	8b/	.	.	8b\	ru-	-bu-	.
*v	*v	*	*	*	*	*	*	*
=10	=10	=10	=10	=10	=10	=10	=10
2CC/ 2C	2ee/	4r	.	2ee\	-mian-	-do-	.
.	.	4e\ 4a 4cc	.	.	.	.	.
2CC#X/ 2C#X	2ee-X/	4r	.	2ee-X\	-kiem	-wać	.
.	.	4e-X\ 4g 4b-X	.	.	.	.	.
*	*v	*v	*	*	*	*	*
=11	=11	=11	=11	=11	=11	=11
4DD/ 4D	4d/ 4g 4bn 4dd	.	4dd\	za-	po-	.
4D\ 4A 4cn 4en	4g\ 4cc 4een 4gg	.	8gg\	-sie-	-mo-	.
.	.	.	8ee\	-je	-że	.
2DD/ 2D	2c/ 2d 2f# 2b 2dd	.	4.b/	z wio-	do-	.
.	.	.	8a/	-sną	-bry	.
!!LO:PB:g=original	!	!	!	!	!	!
=12||	=12||	=12||	=12||	=12||	=12||	=12||
*>B	*>B	*>B	*>B	*>B	*>B	*>B
*M6/8	*M6/8	*	*M6/8	*	*	*
*^	*^	*	*	*	*	*
4.GG/ 4.G	4.ryy	8B/L 8d 8g	4.ryy	.	4.g/	Bóg.	Bóg.	.
.	.	8B/ 8d 8g	.	.	.	.	.	.
.	.	8B/J 8d 8g	.	.	.	.	.	.
(4G/	8AA-X\	(4g^/	8c\	.	4r	.	.	.
.	4BB-X\	.	4d\	.	.	.	.	.
8A-X/)	.	8fn/)	.	.	8r	.	.	.
*v	*v	*	*	*	*	*	*	*
*	*v	*v	*	*	*	*	*
=13	=13	=13	=13	=13	=13	=13
[4.EE-X/ [4.E-X	8B-X/L 8e-X 8g	.	8g/	Po-	Pia-	.
.	8B-/ 8e- 8g	.	8g/	-ro-	-sto-	.
.	8B-/J 8e- 8g	.	8g/	-sną	-wym	.
4.EE-/] 4.E-]	8B-/L 8e- 8g	.	4cc\	won-	o-	.
.	8B-/ 8e- 8g	.	.	.	.	.
.	8B-/J 8e- 8g	.	8g/	-nem	-by-	.
=14	=14	=14	=14	=14	=14	=14
8GG/L	4.B/ 4.d 4.g 4.b-X	.	4.b-X\	zie-	-cza-	.
8AA/	.	.	.	.	.	.
8BB-X/J	.	.	.	.	.	.
8BB-/L	4.d/ 4.g 4.dd	.	4.b-\	-lem	-jem	.
8AA/	.	.	.	.	.	.
8GG/J	.	.	.	.	.	.
!!LO:LB:g=original	!	!	!	!	!	!
=15	=15	=15	=15	=15	=15	=15
4.FFn/ 4.Fn	8B-X/L 8d 8g 8b-X	.	8b-X\	żoł-	go-	.
.	8B-/ 8d 8g 8b-	.	8b-\	-nier-	-ścio-	.
.	8B-/J 8d 8g 8b-	.	8b-\	-skie	-wi	.
4.EEn/ 4.En	8d-X/L 8g 8dd-X	.	4dd-X\	gro-	u	.
.	8d-/ 8g 8dd-	.	.	.	.	.
.	8d-/J 8g 8cc	.	8cc\	-by	swych	.
=16	=16	=16	=16	=16	=16	=16
2.EE-X/ 2.E-X	8c\L 8g-X 8b-X 8cc	.	[4.cc\	w krąg	wrót	.
.	8c\ 8g- 8b- 8cc	.	.	.	.	.
.	8c\J 8g- 8b- 8cc	.	.	.	.	.
.	8c/L 8g- 8b- 8cc	.	4cc\]	.	.	.
.	8c/ 8g- 8b- 8cc	.	.	.	.	.
.	8c/J 8g- 8b- 8cc	.	8r	.	.	.
=17	=17	=17	=17	=17	=17	=17
8B-X\L	8c\L 8g-X 8b-X 8cc	<	8cc\	za-	pod	.
8c\	8fn\ 8g- 8b- 8ffn	.	8ffn\	-dzwo-	li-	.
!	!LO:TX:t=P:problem: - dla dźwięku e- jest zapisany na początku taktu	!	!	!	!	!
8B-\J	8e-y\J 8g- 8b- 8ee-X	.	8ee-X\	-nią	-pą	.
!	!	!	!LO:TX:a:i:t=Con forza.	!	!	!
4.FFn/ 4.Fn	16.f\LL 16.b- 16.dd-X 16.ff	[	16.ff\	o-	po-	.
.	32f\JJk 32b- 32dd- 32ff	.	32ff\	-stre	-sta-	.
.	8d-X/L 8f 8b- 8dd-X	.	8dd-X\	ko-	-wi-	.
.	8B-X/J 8d- 8f 8b-X	.	8b-X\	-sy	-my	.
!!LO:LB:g=original	!	!	!	!	!	!
=18	=18	=18	=18	=18	=18	=18
*	*^	*	*	*	*	*
!	!	!LO:TX:t=P:problem: n zapisany poniżej 4.c	!	!	!	!	!
8DD\L 8D	(8b-X~/L	4.c\ 4.dn 4.f#X	.	8b-X/	śród	sy-	.
8C\ 8D 8F#X 8B-X	8b-~/	.	.	8b-/	na-	-co-	.
8C\J 8D 8F# 8B-	8b-~/J)	.	.	8b-/	-szych	-ny	.
!	!LO:N:vis=4..	!	!	!LO:N:vis=4..	!	!	!
8C\L 8D 8F# 8B-	4ddn/	4.c\ 4.d 4.f# 4b-	.	4ddn\	pól	z pla-	.
8C\ 8D 8F# 8B-	.	.	.	.	.	.	.
8C\J 8D 8F# 8B-	16ryy	.	.	16ryy	.	.	.
.	16a/	.	.	16a/	i	-strów	.
=19	=19	=19	=19	=19	=19	=19	=19
4.C\ 4.D 4.F# 4.A	4.a/	8r	.	4.a/	łąk...	miód	.
.	.	8c\L 8d 8f#	.	.	.	.	.
.	.	8c\J 8d 8f#	.	.	.	.	.
8D\L	4r	4ryy	.	4r	.	.	.
8E-X\	.	.	.	.	.	.	.
8D\J	8r	8ryy	.	8r	.	.	.
*	*v	*v	*	*	*	*	*
=20	=20	=20	=20	=20	=20	=20
*^	*	*	*	*	*	*
!	!	!LO:TX:b:i:t=dolcissimo	!	!	!	!	!
4.E-X\ 4.G 4.A 4.c	4.ryy	8g/L 8a	.	2r	.	.	.
.	.	8g/ 8a	.	.	.	.	.
.	.	8g/J 8a	.	.	.	.	.
(8en~/L	4.D\	4f#/ 4cc	.	.	.	.	.
8e~/	.	.	.	4r	.	.	.
8d~/J)	.	8f#/ 8bn	.	.	.	.	.
!!LO:LB:g=original	!	!	!	!	!	!	!
=21	=21	=21	=21	=21	=21	=21	=21
*	*	*^	*	*	*	*	*
*	*	*	*^	*	*	*	*	*
16D/LL	4.GG\	16b/LL	16B\LL	8g\	p	8b/	śród	sy-	.
16E/JJ	.	16cc/JJ	16c\JJ	.	.	.	.	.	.
8Fn/L	.	8dd/L	8d\L 8g	8ryy	.	8dd\	na-	-co-	.
8F#X/J	.	8dd/J	8d\J 8g	2ryy	.	8dd\	-szych	-ny	.
16G/LL	4GG\	16dd/LL	16d\LL 16b	.	.	4dd\	pól	z pla-	.
16B/	.	16dd/	16d\ 16g	.	.	.	.	.	.
16c/	.	16ee/	16e\ 16g	.	.	.	.	.	.
16B/JJ	.	16dd/JJ	16d\JJ 16g	.	.	.	.	.	.
8c/	8D\ 8A	16cc/LL	16e\LL 16a	.	.	8dd\	i	-strów	.
.	.	16a/JJ	16c\JJ 16d-X 16f#	.	.	.	.	.	.
*v	*v	*	*	*	*	*	*	*	*
*	*v	*v	*v	*	*	*	*	*
=22	=22	=22	=22	=22	=22	=22
!	!LO:TX:b:t=D.C.	!	!	!	!	!
2.GG:\ 2.D: 2.B:	2.d/ 2.g 2.b	.	4.dd\	łąk	miód.	.
.	.	.	4r	.	.	.
.	.	.	8r	.	.	.
!!LO:PB:g=original	!	!	!	!	!	!
=23||	=23||	=23||	=23||	=23||	=23||	=23||
*>A1	*>A1	*>A1	*>A1	*>A1	*>A1	*>A1
*M4/4	*M4/4	*	*M4/4	*	*	*
*^	*^	*	*	*	*	*
4GG/	4ryy	8r	4ryy	.	8r	.	.	.
.	.	8b/	.	.	8b/	i	.	.
8c/L	8D\L 8G	8a/L	4d\	.	8a/	o-	.	.
8B/J	8D\J 8G	[<8g/J	.	.	8g/	-po-	.	.
8.E-X\L 8.A 8.c	2ryy	8.a/L	8.g\L]	.	8.a/	-wie-	.	.
16E-\Jk 16A 16c	.	16b/Jk	16g\Jk	.	16b/	-my	.	.
4D\ 4A 4c	.	4cc/	8g\L	.	8cc/	kre-	.	.
.	.	.	8f#\J	.	8f#/	-śląc	.	.
=24	=24	=24	=24	=24	=24	=24	=24	=24
4BBB/ 4BB	2ryy	8r	2ryy	.	8r	.	.	.
.	.	8dd/	.	.	8dd\	na	.	.
4D\ 4G 4d	.	8b/L	.	.	8b/	czo-	.	.
.	.	8g/J	.	.	8g/	-łach	.	.
4G/	8.C#X\L	8.ee-X/L	4g\ 4b	.	8.ee-X\	krzy-	.	.
.	16Cn\Jk	16een/Jk	.	.	16een\	-ża	.	.
8BB\ 8Fn 8G#X 8d	4ryy	8fn/ 8dd 8ffn	4ryy	.	8ffn\	znak	.	.
8r	.	8r	.	.	8ee\	o	.	.
*v	*v	*	*	*	*	*	*	*
!!LO:LB:g=original	!	!	!	!	!	!	!
=25	=25	=25	=25	=25	=25	=25	=25
4AAA/ 4AA	4r	4ryy	f	4.gg\	Tej	.	.
2.C\ 2.E 2.G	4cc/ 4ee	2e\	<	.	.	.	.
.	.	.	.	8ee\	co	.	.
.	4.b/ 4.dd	.	.	4.dd\	nie	.	.
.	.	4A\ 4c 4e	.	.	.	.	.
.	8a/ 8cc	.	[	8cc\	zgi-	.	.
=26	=26	=26	=26	=26	=26	=26	=26
*^	*	*	*	*	*	*	*
!	!	!	!	!	!	!	!	!LO:DY:b
4EE:/ 4BB: 4G:	2ryy	2e;:\ 2b: 2ee:	2ryy	ff	2gg;\	-nę-	.	ff
4E\ 4G 4B	.	.	.	.	.	.	.	.
2GG/ 2E	(4CC\	2g/ 2b	(4e\	.	2b\	-ła	.	.
.	4BBB\)	.	4d\)	.	.	.	.	.
*v	*v	*	*	*	*	*	*	*
=27	=27	=27	=27	=27	=27	=27	=27
2DD:/ 2AA: 2E:	4a^^/	2c\ 2g	.	4a/	a	.	.
.	8b/L	.	.	8b/	któ-	.	.
.	8cc/J	.	.	8cc/	-rej	.	.
2D\ 2A 2c	4.dd/	2c\ 2d 2f#	.	4.dd\	wciąż	.	.
.	8a/	.	.	8a/	nam	.	.
!!LO:LB:g=original	!	!	!	!	!	!	!
=28	=28	=28	=28	=28	=28	=28	=28
2GG/ 2G	2.b/	4re	.	2b\	brak	.	.
.	.	4B\ 4d 4g	.	.	.	.	.
2FFn/ 2Fn	.	4re	.	4r	.	.	.
.	4b/	4B\ 4d 4g#X	.	4b\	o	.	.
=29	=29	=29	=29	=29	=29	=29	=29
*^	*	*	*	*	*	*	*
4EE/ 4E	4ryy	4.ee/	2d\ 2e 2g	.	4.ee\	Tej	.	.
(8c#/L	4E\ 4G#X	.	.	.	.	.	.	.
8B/J	.	8dd/	.	.	8dd\	co	.	.
4e/	2E\	4.cc/	2g\	.	4.cc\	nie	.	.
4d/)	.	.	.	.	.	.	.	.
.	.	8b/	.	.	8b\	zgi-	.	.
*v	*v	*	*	*	*	*	*	*
=30	=30	=30	=30	=30	=30	=30	=30
2CC/ 2C	2ee/	4r	.	2ee\	-nę-	.	.
.	.	4e\ 4a 4cc	.	.	.	.	.
2CC#X/ 2C#X	2ee-X/	4r	.	2ee-X\	-ła	.	.
.	.	4e-X\ 4g 4b-X	.	.	.	.	.
*	*v	*v	*	*	*	*	*
!!LO:LB:g=original	!	!	!	!	!	!
=31	=31	=31	=31	=31	=31	=31
!	!	!LO:HP:t=cresc	!	!	!	!
4DD/ 4D	4d\ 4g 4bn 4dd	<	4dd\	a	.	.
4D\ 4A 4c 4e	4g\ 4cc 4een 4gg	.	8een\	któ-	.	.
.	.	.	8dd\	-rej	.	.
8DD/L 8D	4.c:/ 4.d: 4.f#: 4.b: 4.dd:	.	4.dd\	wciąż	.	.
8CC/ 8C	.	.	.	.	.	.
8BBB/ 8BB	.	.	.	.	.	.
8AAA/J 8AA	8c/ 8d 8f# 8cc 8dd	.	8dd\	nam	.	.
=32	=32	=32	=32	=32	=32	=32
!	!	!	!LO:N:vis=2	!	!	!
4GGG/ 4GG	4g\ 4b 4dd 4gg	f	2.gg\	brak	.	.
4CC/ 4C	4e-X/ 4g 4cc	.	.	.	.	.
4GGG/ 4GG	4G/ 4B 4d 4g	.	.	.	.	.
!	!LO:TX:b:t=Fine.:note=podreślone	!	!	!	!	!
4r	4r	.	4r	.	.	.
==	==	==	==	==	==	==
*-	*-	*-	*-	*-	*-	*-
!!!system-decoration: s1{(s2,s3)}
!!!RDF**kern: > = above
!!!RDF**kern: < = below
!!!ENC: Berenika Jozajtis
!!!END: 2023-08-23
!!!ENC: Jan Barakat
!!!END: 2023-09-17
